res/skins/LateNight/buttons/btn_lib_radio_button_on.svg

<?xml version="1.0" encoding="UTF-8" standalone="no"?>
<!-- Created with Inkscape (http://www.inkscape.org/) -->

<svg
   xmlns:dc="http://purl.org/dc/elements/1.1/"
   xmlns:cc="http://creativecommons.org/ns#"
   xmlns:rdf="http://www.w3.org/1999/02/22-rdf-syntax-ns#"
   xmlns:svg="http://www.w3.org/2000/svg"
   xmlns="http://www.w3.org/2000/svg"
   version="1.1"
   width="100%"
   height="100%"
   viewBox="0 0 18 18"
   id="svg2">
  <metadata
     id="metadata12">
    <rdf:RDF>
      <cc:Work
         rdf:about="">
        <dc:format>image/svg+xml</dc:format>
        <dc:type
           rdf:resource="http://purl.org/dc/dcmitype/StillImage" />
        <dc:title></dc:title>
      </cc:Work>
    </rdf:RDF>
  </metadata>
  <defs
     id="defs10" />
  <path
     d="M 9,5.1042489 C 6.8495453,5.1042489 5.1042489,6.8495453 5.1042489,9 c 0,2.150454 1.7452964,3.895751 3.8957511,3.895751 2.150454,0 3.895751,-1.745297 3.895751,-3.895751 C 12.895751,6.8495453 11.150454,5.1042489 9,5.1042489 z"
     id="path2987"
     style="fill:#cab32c;fill-opacity:1" />
  <path
     d="M 9,2 C 5.1325,2 2,5.1325 2,9 c 0,3.8675 3.1325,7 7,7 3.8675,0 7,-3.1325 7,-7 C 16,5.1325 12.868,2 9,2 z M 9,3.40625 C 12.094,3.40625 14.59375,5.906 14.59375,9 14.59375,12.094 12.094,14.59375 9,14.59375 5.906,14.59375 3.40625,12.094 3.40625,9 3.40625,5.906 5.906,3.40625 9,3.40625 z"
     id="path2985"
     style="fill:#d2d2d2;fill-opacity:1" />
</svg>

<?xml version="1.0" encoding="UTF-8"?>
<!-- Created with Inkscape (http://www.inkscape.org/) -->
<svg id="svg2" version="1.1" viewBox="0 0 18 18" xmlns="http://www.w3.org/2000/svg" xmlns:cc="http://creativecommons.org/ns#" xmlns:dc="http://purl.org/dc/elements/1.1/" xmlns:rdf="http://www.w3.org/1999/02/22-rdf-syntax-ns#">
 <metadata id="metadata12">
  <rdf:RDF>
   <cc:Work rdf:about="">
    <dc:format>image/svg+xml</dc:format>
    <dc:type rdf:resource="http://purl.org/dc/dcmitype/StillImage"/>
    <dc:title/>
   </cc:Work>
  </rdf:RDF>
 </metadata>
 <path id="path2987" d="m9 5.1042c-2.1505 0-3.8958 1.7453-3.8958 3.8958 0 2.1505 1.7453 3.8958 3.8958 3.8958 2.1505 0 3.8958-1.7453 3.8958-3.8958 0-2.1505-1.7453-3.8958-3.8958-3.8958z" fill="#cab32c"/>
 <path id="path2985" d="m9 2c-3.8675 0-7 3.1325-7 7s3.1325 7 7 7 7-3.1325 7-7-3.132-7-7-7zm0 1.4062c3.094 0 5.5938 2.4998 5.5938 5.5938s-2.4998 5.5938-5.5938 5.5938-5.5938-2.4998-5.5938-5.5938 2.4998-5.5938 5.5938-5.5938z" fill="#d2d2d2"/>
</svg>
